Hatter-kde/actions/24/vcs-status-cvs-cervisia.svg

<svg xmlns="http://www.w3.org/2000/svg" viewBox="0 0 24 24">
  <defs id="defs3051">
    <style type="text/css" id="current-color-scheme">
      .ColorScheme-Text {
        color:#363636;
      }
      </style>
  </defs><g transform="translate(1,1)">
  <path
     style="fill:currentColor;fill-opacity:1;stroke:none" 
     d="M 11 3 C 6.5817225 3 3 4.3431457 3 6 L 3 16 C 3 17.656854 6.5817225 19 11 19 C 12.894697 19 14.728135 18.748318 16.173828 18.289062 L 15.439453 17.544922 C 15.425173 17.548222 15.410854 17.551388 15.396484 17.554688 C 14.944051 17.74434 14.521226 18 14 18 C 13.705926 18 13.421028 17.96343 13.144531 17.902344 C 12.45182 17.966571 11.728271 17.99952 11 18 C 7.1340068 18 4 17.104569 4 16 L 4 12.451172 C 5.2385656 13.288442 7.4684781 13.853721 10.001953 13.972656 C 10.004353 13.629681 10.063761 13.302306 10.148438 12.984375 C 6.6390555 12.861485 4.0013625 12.010183 4 11 L 4 7.4511719 C 5.4081159 8.4065815 8.08901 8.9997592 11 9 C 13.914295 8.99858 16.595979 8.4029845 18 7.4453125 L 18 15.888672 L 18.789062 16.667969 C 18.925926 16.448982 18.996683 16.224918 19 16 L 19 6 C 18.999999 4.3431457 15.418277 3 11 3 z M 11 4 C 14.865993 4 18 4.8954305 18 6 C 18 7.1045695 14.865993 8 11 8 C 7.1340068 8 4 7.1045695 4 6 C 4 4.8954305 7.1340068 4 11 4 z M 14 11 C 12.337997 11 11 12.338 11 14 C 11 15.662 12.337997 17 14 17 C 14.649392 17 15.260026 16.7855 15.75 16.4375 L 18.28125 19 L 19 18.28125 L 16.4375 15.75 C 16.785555 15.2601 17 14.6494 17 14 C 17 12.338 15.662003 11 14 11 z M 14 12 C 15.1 12 16 12.892 16 14 C 16 15.108 15.1 16 14 16 C 12.9 16 12 15.108 12 14 C 12 12.892 12.891997 12 14 12 z "
     class="ColorScheme-Text" />
</g></svg>

<?xml version="1.0" encoding="UTF-8"?>
<svg viewBox="0 0 24 24" xmlns="http://www.w3.org/2000/svg">
 <defs id="defs3051">
  <style id="current-color-scheme" type="text/css">.ColorScheme-Text {
        color:#363636;
      }</style>
 </defs>
 <g transform="translate(1,1)">
  <path class="ColorScheme-Text" d="m11 3c-4.4183 0-8 1.3431-8 3v10c0 1.6569 3.5817 3 8 3 1.8947 0 3.7281-0.25168 5.1738-0.71094l-0.73438-0.74414c-0.01428 0.0033-0.028599 0.006466-0.042969 0.009766-0.45243 0.18965-0.87526 0.44531-1.3965 0.44531-0.29407 0-0.57897-0.03657-0.85547-0.097656-0.69271 0.064227-1.4163 0.097176-2.1445 0.097656-3.866 0-7-0.89543-7-2v-3.5488c1.2386 0.83727 3.4685 1.4025 6.002 1.5215 0.0024-0.34298 0.061808-0.67035 0.14648-0.98828-3.5094-0.12289-6.1471-0.97419-6.1484-1.9844v-3.5488c1.4081 0.95541 4.089 1.5486 7 1.5488 2.9143-0.00142 5.596-0.59702 7-1.5547v8.4434l0.78906 0.7793c0.13686-0.21899 0.20762-0.44305 0.21094-0.66797v-10c-1e-6 -1.6569-3.5817-3-8-3zm0 1c3.866 0 7 0.89543 7 2s-3.134 2-7 2c-3.866 0-7-0.89543-7-2s3.134-2 7-2zm3 7c-1.662 0-3 1.338-3 3s1.338 3 3 3c0.64939 0 1.26-0.2145 1.75-0.5625l2.5312 2.5625 0.71875-0.71875-2.5625-2.5312c0.34806-0.4899 0.5625-1.1006 0.5625-1.75 0-1.662-1.338-3-3-3zm0 1c1.1 0 2 0.892 2 2s-0.9 2-2 2-2-0.892-2-2 0.892-2 2-2z" fill="currentColor"/>
 </g>
</svg>
